X: 3
T: Roaring Mary
R: reel
M: 4/4
L: 1/8
K: Dmaj
D~F3 ADFA|d~f3 g2 fe|dcdB ABde|fede feef|
D~F3 ADFA|d~f3 g2 fe|dcdB ABdf|afeg fd d2:|
abag fgfe|dcdA BAFA|d~g3 b~g3|a~f3 ge ~e2|
D~F3 ADFA|d~f3 g2 fe|dcdB ABdf|afeg fd d2:|


Tune 762	Setting 29710

